places/scalable/folder-violet-gitlab.svg

<?xml version="1.0" standalone="no"?><!-- Generator: Gravit.io -->
<svg xmlns="http://www.w3.org/2000/svg" 
  xmlns:xlink="http://www.w3.org/1999/xlink" style="isolation:isolate" viewBox="0 0 256 256" width="256" height="256">
  <g id="folder">
    <path d=" M 53.705469 21 C 17.390414 21 13.666667 23.055089 13.666667 59.371035 L 13.666667 111.538229 L 243.666667 111.538229 L 243.666667 79.563042 C 243.666667 43.247098 239.942918 37.460768 203.627861 37.460768 L 114.291921 37.460768 L 97.864201 21 L 53.705469 21 Z " id="orange" fill="#7839B7"/>
    <path d=" M 53.705469 70.384311 C 17.388415 70.384311 13.666667 74.113541 13.666667 110.429488 L 13.666667 194.952819 C 13.666667 231.268759 17.388415 235 53.705469 235 L 203.627861 235 C 239.944918 235 243.666667 231.268759 243.666667 194.952819 L 243.666667 93.968715 C 243.666667 57.652775 239.944918 53.921534 203.627861 53.921534 L 120.196686 53.921534 L 103.758968 70.384311 L 53.705469 70.384311 Z " id="change-color-easy" fill="#8F76E4"/>
    <linearGradient id="_lgradient_0" x1="0" y1="0.5" x2="2.83276944882399e-16" y2="-0.5" gradientTransform="matrix(230,0,0,181.078466,13.666667,53.921534)" gradientUnits="userSpaceOnUse">
      <stop offset="0%" stop-opacity="0.07" style="stop-color:rgb(255,255,255)"/>
      <stop offset="67.28219512106674%" stop-opacity="0" style="stop-color:rgb(252,239,232)"/>
    </linearGradient>
    <path d=" M 53.705469 70.384311 C 17.388415 70.384311 13.666667 74.113541 13.666667 110.429488 L 13.666667 194.952819 C 13.666667 231.268759 17.388415 235 53.705469 235 L 203.627861 235 C 239.944918 235 243.666667 231.268759 243.666667 194.952819 L 243.666667 93.968715 C 243.666667 57.652775 239.944918 53.921534 203.627861 53.921534 L 120.196686 53.921534 L 103.758968 70.384311 L 53.705469 70.384311 Z " id="gradient white" fill="url(#_lgradient_0)"/>
    <g opacity="0.4">
      <radialGradient id="_rgradient_0" fx="0.5000000213726793" fy="0.13577386516315215" cx="0.5" cy="0.5" r="0.27154159375000003" gradientTransform="matrix(230,0,0,60.620138,13.666667,21)" gradientUnits="userSpaceOnUse">
        <stop offset="0%" stop-opacity="1" style="stop-color:rgb(255,255,255)"/>
        <stop offset="100%" stop-opacity="0.20392157" style="stop-color:rgb(255,255,255)"/>
      </radialGradient>
      <path d=" M 53.705469 21 C 17.390414 21 13.666667 23.055089 13.666667 59.371035 L 13.666667 61.430128 C 13.666667 25.114188 17.390414 23.057095 53.705469 23.057095 L 97.864201 23.057095 L 114.291921 39.517861 L 203.627861 39.517861 C 239.942918 39.517861 243.666667 45.304195 243.666667 81.620138 L 243.666667 79.563042 C 243.666667 43.247098 239.942918 37.460768 203.627861 37.460768 L 114.291921 37.460768 L 97.864201 21 L 53.705469 21 Z " id="white" fill="url(#_rgradient_0)"/>
    </g>
    <g opacity="0.4">
      <radialGradient id="_rgradient_1" fx="0.48214287810452355" fy="0.2108154047287485" cx="0.5" cy="0.5" r="0.27154159375" gradientTransform="matrix(230,0,0,58.565044,13.666667,53.921534)" gradientUnits="userSpaceOnUse">
        <stop offset="0%" stop-opacity="1" style="stop-color:rgb(255,255,255)"/>
        <stop offset="100%" stop-opacity="0.20392157" style="stop-color:rgb(255,255,255)"/>
      </radialGradient>
      <path d=" M 120.196686 53.921534 L 103.758968 70.384311 L 53.705469 70.384311 C 17.390414 70.384311 13.666667 74.111537 13.666667 110.427484 L 13.666667 112.486577 C 13.666667 76.170637 17.390414 72.4414 53.705469 72.4414 L 103.758968 72.4414 L 120.196686 55.980634 L 203.627861 55.980634 C 239.942918 55.980634 243.666667 59.707868 243.666667 96.023808 L 243.666667 93.966711 C 243.666667 57.650771 239.942918 53.921534 203.627861 53.921534 L 120.196686 53.921534 Z " id="white" fill="url(#_rgradient_1)"/>
    </g>
    <g opacity="0.1">
      <path d=" M 243.666667 167.095832 L 177.951803 232.940899 L 203.627861 232.940899 C 239.942918 232.940899 243.666667 229.213666 243.666667 192.897726 L 243.666667 167.095832 Z " id="white" fill="rgb(255,255,255)"/>
    </g>
    <g opacity="0.2">
      <path d=" M 13.666667 192.897726 L 13.666667 194.954823 C 13.666667 231.270763 17.390414 235 53.705469 235 L 203.627861 235 C 239.942918 235 243.666667 231.270763 243.666667 194.954823 L 243.666667 192.897726 C 243.666667 229.213666 239.942918 232.940899 203.627861 232.940899 L 53.705469 232.940899 C 17.390414 232.940899 13.666667 229.213666 13.666667 192.897726 Z " id="dark" fill="rgb(0,0,0)"/>
    </g>
  </g>
  <g opacity="0.62">
    <path d=" M 161.943876 97.000478 C 160.801426 96.987892 159.78268 97.720292 159.426566 98.810232 L 146.453937 138.905058 L 109.547292 138.905058 L 96.574664 98.810232 C 96.226583 97.754024 95.256352 97.030252 94.148655 97.000478 C 93.040958 96.979383 92.039158 97.658301 91.644387 98.697613 L 76.010974 140.58386 C 76.00054 140.58386 76.00054 140.594336 75.990105 140.602193 L 68.164269 161.554483 C 67.754416 162.659246 68.130262 163.902778 69.0825 164.592565 L 126.451099 206.478812 L 126.461534 206.499764 C 126.471968 206.499764 126.471968 206.499764 126.471968 206.51024 L 126.576313 206.570478 C 126.615442 206.59143 126.644136 206.622859 126.685874 206.641192 C 126.696309 206.641192 126.696309 206.651668 126.706743 206.651668 C 126.706743 206.651668 126.717178 206.662144 126.727612 206.662144 C 126.738046 206.67262 126.748481 206.683097 126.766741 206.683097 L 126.808479 206.714525 C 126.860651 206.732858 126.920649 206.766906 126.980647 206.785239 L 126.980647 206.795715 L 127.155424 206.855953 C 127.165859 206.855953 127.165859 206.855953 127.176293 206.866429 C 127.220637 206.877515 127.264208 206.891513 127.306724 206.908334 C 127.327593 206.908334 127.348462 206.91881 127.379765 206.91881 C 127.379765 206.929286 127.379765 206.929286 127.379765 206.91881 C 127.431937 206.939762 127.481501 206.947619 127.531065 206.958095 L 127.734536 206.989524 C 127.838881 206.989524 127.948443 207 128.052787 207 C 128.154523 206.989524 128.245824 206.989524 128.337126 206.968572 C 128.378864 206.968572 128.407558 206.968572 128.449296 206.958095 L 128.470165 206.958095 C 128.491034 206.947619 128.49886 206.947619 128.522337 206.947619 C 128.530163 206.947619 128.540597 206.939762 128.561466 206.939762 C 128.582335 206.929286 128.613639 206.929286 128.631899 206.91881 C 128.667109 206.909824 128.701922 206.899339 128.736243 206.887381 C 128.754504 206.887381 128.764938 206.887381 128.775373 206.876905 L 128.806676 206.876905 C 128.89846 206.847201 128.98749 206.809519 129.072754 206.764287 C 129.08058 206.764287 129.08058 206.764287 129.091015 206.753811 C 129.101449 206.753811 129.111884 206.753811 129.122318 206.743334 L 129.182316 206.714525 C 129.238345 206.685342 129.293171 206.653888 129.346659 206.62024 C 129.364919 206.612383 129.375353 206.601906 129.385788 206.59143 C 129.396222 206.59143 129.406657 206.580954 129.417091 206.580954 C 129.458829 206.549526 129.497958 206.528573 129.539696 206.499764 L 129.560565 206.468336 L 186.929164 164.595184 C 187.87609 163.898521 188.243904 162.659716 187.834352 161.557102 L 180.029384 140.675526 C 180.017526 140.652764 180.010424 140.62781 180.008516 140.602193 L 164.356843 98.697613 C 163.977879 97.687744 163.021269 97.014194 161.946485 97.000478 L 161.943876 97.000478 Z  M 83.826376 144.14313 L 105.756979 144.14313 L 121.030403 191.327687 L 83.826376 144.14313 Z  M 150.244251 144.14313 L 172.174853 144.14313 L 134.970826 191.327687 L 150.244251 144.14313 Z  M 79.250871 146.783119 L 114.141058 191.029117 L 73.751916 161.53615 L 79.250871 146.783119 Z  M 176.750359 146.783119 L 182.251922 161.53615 L 141.860171 191.029117 L 176.750359 146.783119 Z " id="gitlab" fill="#FFFFFF"/>
  </g>
</svg>

<svg xmlns="http://www.w3.org/2000/svg" style="isolation:isolate" width="256" height="256"><path d="M53.705 21c-36.315 0-40.038 2.055-40.038 38.371v52.167h230V79.563c0-36.316-3.724-42.102-40.04-42.102h-89.335L97.864 21H53.705z" fill="#7839B7"/><path d="M53.705 70.384c-36.317 0-40.038 3.73-40.038 40.045v84.524c0 36.316 3.721 40.047 40.038 40.047h149.923c36.317 0 40.039-3.731 40.039-40.047V93.969c0-36.316-3.722-40.047-40.04-40.047h-83.43l-16.438 16.462H53.705z" fill="#8F76E4"/><linearGradient id="a" y1=".5" x2="0" y2="-.5" gradientTransform="matrix(230 0 0 181.07847 13.667 53.922)" gradientUnits="userSpaceOnUse"><stop offset="0%" stop-opacity=".07" stop-color="#fff"/><stop offset="67.282%" stop-opacity="0" stop-color="#fcefe8"/></linearGradient><path d="M53.705 70.384c-36.317 0-40.038 3.73-40.038 40.045v84.524c0 36.316 3.721 40.047 40.038 40.047h149.923c36.317 0 40.039-3.731 40.039-40.047V93.969c0-36.316-3.722-40.047-40.04-40.047h-83.43l-16.438 16.462H53.705z" fill="url(#a)"/><g opacity=".4"><radialGradient id="b" fx=".5" fy=".136" cx=".5" cy=".5" r=".272" gradientTransform="matrix(230 0 0 60.62014 13.667 21)" gradientUnits="userSpaceOnUse"><stop offset="0%" stop-color="#fff"/><stop offset="100%" stop-opacity=".204" stop-color="#fff"/></radialGradient><path d="M53.705 21c-36.315 0-40.038 2.055-40.038 38.371v2.06c0-36.317 3.723-38.374 40.038-38.374h44.16l16.427 16.46h89.336c36.315 0 40.039 5.787 40.039 42.103v-2.057c0-36.316-3.724-42.102-40.04-42.102h-89.335L97.864 21H53.705z" fill="url(#b)"/></g><g opacity=".4"><radialGradient id="c" fx=".482" fy=".211" cx=".5" cy=".5" r=".272" gradientTransform="matrix(230 0 0 58.56504 13.667 53.922)" gradientUnits="userSpaceOnUse"><stop offset="0%" stop-color="#fff"/><stop offset="100%" stop-opacity=".204" stop-color="#fff"/></radialGradient><path d="M120.197 53.922l-16.438 16.462H53.705c-36.315 0-40.038 3.728-40.038 40.043v2.06c0-36.316 3.723-40.046 40.038-40.046h50.054l16.438-16.46h83.43c36.316 0 40.04 3.727 40.04 40.043v-2.057c0-36.316-3.724-40.045-40.04-40.045h-83.43z" fill="url(#c)"/></g><path d="M243.667 167.096l-65.715 65.845h25.676c36.315 0 40.039-3.727 40.039-40.043v-25.802z" fill="#FFF" opacity=".1"/><path d="M13.667 192.898v2.057C13.667 231.27 17.39 235 53.705 235h149.923c36.315 0 40.039-3.73 40.039-40.045v-2.057c0 36.316-3.724 40.043-40.04 40.043H53.706c-36.315 0-40.038-3.727-40.038-40.043z" opacity=".2"/><g opacity=".62"><path d="M161.944 97a2.62 2.62 0 0 0-2.517 1.81l-12.973 40.095h-36.907L96.575 98.81A2.63 2.63 0 0 0 94.149 97a2.627 2.627 0 0 0-2.505 1.698l-15.633 41.886c-.01 0-.01.01-.02.018l-7.827 20.952a2.625 2.625 0 0 0 .918 3.039l57.37 41.886.01.02c.01 0 .01 0 .01.011l.104.06c.04.021.068.053.11.071.01 0 .01.01.02.01 0 0 .011.011.022.011.01.01.02.021.039.021l.041.032c.053.018.113.052.173.07v.01l.174.061c.01 0 .01 0 .021.01.045.012.088.026.13.042.022 0 .042.01.074.01 0 .011 0 .011 0 0 .052.022.102.03.151.04l.204.032c.104 0 .213.01.318.01.102-.01.193-.01.284-.031.042 0 .07 0 .112-.01h.021c.021-.011.029-.011.052-.011.008 0 .019-.008.04-.008.02-.01.052-.01.07-.021.035-.01.07-.02.104-.032.019 0 .029 0 .04-.01h.03c.092-.03.181-.067.267-.113.008 0 .008 0 .018-.01.01 0 .02 0 .031-.01l.06-.03c.056-.029.111-.06.165-.094.018-.008.028-.018.039-.029.01 0 .02-.01.031-.01.042-.031.081-.052.123-.081l.02-.032 57.37-41.873a2.631 2.631 0 0 0 .904-3.038l-7.805-20.881a.19.19 0 0 1-.02-.074l-15.652-41.904a2.612 2.612 0 0 0-2.41-1.698h-.003zm-78.118 47.143h21.931l15.273 47.185-37.204-47.185zm66.418 0h21.93l-37.203 47.185 15.273-47.185zm-70.993 2.64l34.89 44.246-40.39-29.493 5.5-14.753zm97.5 0l5.5 14.753-40.39 29.493 34.89-44.246z" fill="#FFF"/></g></svg>
